src/images/sponsor/variant.svg

<svg height="189" viewBox="0 0 886 189" width="886" xmlns="http://www.w3.org/2000/svg"><path d="m143.792201 63.514-68.944 123.988h-1.112l-72.83600002-123.988h46.14800002l28.356 57.824 25.02-57.824zm138.737085 0v121.486h-38.92v-15.012c-11.676058 12.232061-25.205256 18.348-40.588 18.348-17.977423 0-32.572277-5.374613-43.785-16.124-11.212722-10.749387-16.819-26.687894-16.819-47.816 0-13.344067 2.73364-25.0662828 8.201-35.167 5.467361-10.1007172 12.741622-17.9309722 21.823-23.491 9.081379-5.5600278 18.811282-8.34 29.19-8.34 10.749387 0 19.274636 1.6216504 25.576 4.865 6.301365 3.2433495 11.86131 7.8303037 16.68 13.761l2.502-12.51zm-68.388 93.13c13.529401 0 23.35197-6.115939 29.468-18.348v-29.746c-2.224011-5.930696-6.069639-10.6566491-11.537-14.178-5.46736-3.5213509-11.907629-5.282-19.321-5.282-8.525376 0-15.799636 3.1506352-21.823 9.452-6.023363 6.301365-9.035 14.270618-9.035 23.908 0 6.301365 1.482652 12.092974 4.448 17.375 2.965349 5.282026 6.903643 9.405652 11.815 12.371 4.911358 2.965348 10.239638 4.448 15.985 4.448zm137.347086-65.33c3.336017-6.4866991 7.922971-12.3246407 13.761-17.514s11.814969-9.220319 17.931-12.093c6.11603-2.872681 10.934649-4.309 14.456-4.309l-1.946 38.92c-1.112006-.1853343-2.687323-.278-4.726-.278-7.784039 0-14.641304 2.0386463-20.572 6.116-5.930696 4.077354-10.471318 9.312968-13.622 15.707-3.150683 6.394032-4.726 12.926967-4.726 19.599v47.538h-38.642v-121.486h35.028zm105.655085-27.8v121.486h-38.92v-121.486zm-39.754-43.09c0-5.5600278 2.177645-10.2396477 6.533-14.039 4.355355-3.79935233 9.312972-5.699 14.873-5.699 5.374694 0 10.193312 1.89964767 14.456 5.699 4.262688 3.7993523 6.394 8.4789722 6.394 14.039s-2.131312 10.1933148-6.394 13.9-9.081306 5.56-14.456 5.56c-5.560028 0-10.517645-1.8533148-14.873-5.56s-6.533-8.3399722-6.533-13.9zm201.287086 43.09v121.486h-38.92v-15.012c-11.676059 12.232061-25.205257 18.348-40.588 18.348-17.977424 0-32.572278-5.374613-43.785-16.124-11.212723-10.749387-16.819-26.687894-16.819-47.816 0-13.344067 2.733639-25.0662828 8.201-35.167 5.46736-10.1007172 12.741621-17.9309722 21.823-23.491 9.081378-5.5600278 18.811281-8.34 29.19-8.34 10.749387 0 19.274635 1.6216504 25.576 4.865 6.301365 3.2433495 11.861309 7.8303037 16.68 13.761l2.502-12.51zm-68.388 93.13c13.529401 0 23.351969-6.115939 29.468-18.348v-29.746c-2.224011-5.930696-6.06964-10.6566491-11.537-14.178-5.467361-3.5213509-11.90763-5.282-19.321-5.282-8.525376 0-15.799637 3.1506352-21.823 9.452-6.023364 6.301365-9.035 14.270618-9.035 23.908 0 6.301365 1.482652 12.092974 4.448 17.375s6.903642 9.405652 11.815 12.371 10.239638 4.448 15.985 4.448zm183.773085-98.968c11.490724 0 21.081628 3.4286324 28.773 10.286s11.629666 15.5679472 11.815 26.132v90.906h-38.92v-76.45c-.556003-11.8613926-6.48661-17.792-17.792-17.792-8.896044 0-16.031306 4.1699583-21.406 12.51-5.374693 8.340042-8.062 19.089268-8.062 32.248v49.484h-38.92v-121.486h35.306l2.78 19.46c4.448022-7.9693732 10.610294-14.1779778 18.487-18.626s17.189613-6.672 27.939-6.672zm121.779086-47.538v52.82h29.468v30.302h-29.468v91.74h-38.92v-91.74h-18.904v-30.302h18.904v-52.82z" fill="#fff" fill-rule="evenodd"/></svg>

<?xml version="1.0" encoding="UTF-8"?>
<svg width="886px" height="189px" viewBox="0 0 886 189" version="1.1" xmlns="http://www.w3.org/2000/svg" xmlns:xlink="http://www.w3.org/1999/xlink">
    <!-- Generator: Sketch 48.2 (47327) - http://www.bohemiancoding.com/sketch -->
    <title>Artboard</title>
    <desc>Created with Sketch.</desc>
    <defs>
        <path d="M143.792201,63.514 L74.848201,187.502 L73.736201,187.502 L0.900200981,63.514 L47.048201,63.514 L75.404201,121.338 L100.424201,63.514 L143.792201,63.514 Z M282.529286,63.514 L282.529286,185 L243.609286,185 L243.609286,169.988 C231.933228,182.220061 218.40403,188.336 203.021286,188.336 C185.043863,188.336 170.449009,182.961387 159.236286,172.212 C148.023564,161.462613 142.417286,145.524106 142.417286,124.396 C142.417286,111.051933 145.150926,99.3297172 150.618286,89.229 C156.085647,79.1282828 163.359908,71.2980278 172.441286,65.738 C181.522665,60.1779722 191.252568,57.398 201.631286,57.398 C212.380673,57.398 220.905922,59.0196504 227.207286,62.263 C233.508651,65.5063495 239.068596,70.0933037 243.887286,76.024 L246.389286,63.514 L282.529286,63.514 Z M214.141286,156.644 C227.670687,156.644 237.493256,150.528061 243.609286,138.296 L243.609286,108.55 C241.385275,102.619304 237.539647,97.8933509 232.072286,94.372 C226.604926,90.8506491 220.164657,89.09 212.751286,89.09 C204.22591,89.09 196.95165,92.2406352 190.928286,98.542 C184.904923,104.843365 181.893286,112.812618 181.893286,122.45 C181.893286,128.751365 183.375938,134.542974 186.341286,139.825 C189.306635,145.107026 193.244929,149.230652 198.156286,152.196 C203.067644,155.161348 208.395924,156.644 214.141286,156.644 Z M351.488372,91.314 C354.824389,84.8273009 359.411343,78.9893593 365.249372,73.8 C371.087401,68.6106407 377.064341,64.579681 383.180372,61.707 C389.296402,58.834319 394.115021,57.398 397.636372,57.398 L395.690372,96.318 C394.578366,96.1326657 393.003049,96.04 390.964372,96.04 C383.180333,96.04 376.323068,98.0786463 370.392372,102.156 C364.461676,106.233354 359.921054,111.468968 356.770372,117.863 C353.619689,124.257032 352.044372,130.789967 352.044372,137.462 L352.044372,185 L313.402372,185 L313.402372,63.514 L348.430372,63.514 L351.488372,91.314 Z M457.143457,63.514 L457.143457,185 L418.223457,185 L418.223457,63.514 L457.143457,63.514 Z M417.389457,20.424 C417.389457,14.8639722 419.567102,10.1843523 423.922457,6.385 C428.277812,2.58564767 433.235429,0.686 438.795457,0.686 C444.170151,0.686 448.988769,2.58564767 453.251457,6.385 C457.514145,10.1843523 459.645457,14.8639722 459.645457,20.424 C459.645457,25.9840278 457.514145,30.6173148 453.251457,34.324 C448.988769,38.0306852 444.170151,39.884 438.795457,39.884 C433.235429,39.884 428.277812,38.0306852 423.922457,34.324 C419.567102,30.6173148 417.389457,25.9840278 417.389457,20.424 Z M618.676543,63.514 L618.676543,185 L579.756543,185 L579.756543,169.988 C568.080484,182.220061 554.551286,188.336 539.168543,188.336 C521.191119,188.336 506.596265,182.961387 495.383543,172.212 C484.17082,161.462613 478.564543,145.524106 478.564543,124.396 C478.564543,111.051933 481.298182,99.3297172 486.765543,89.229 C492.232903,79.1282828 499.507164,71.2980278 508.588543,65.738 C517.669921,60.1779722 527.399824,57.398 537.778543,57.398 C548.52793,57.398 557.053178,59.0196504 563.354543,62.263 C569.655908,65.5063495 575.215852,70.0933037 580.034543,76.024 L582.536543,63.514 L618.676543,63.514 Z M550.288543,156.644 C563.817944,156.644 573.640512,150.528061 579.756543,138.296 L579.756543,108.55 C577.532532,102.619304 573.686903,97.8933509 568.219543,94.372 C562.752182,90.8506491 556.311913,89.09 548.898543,89.09 C540.373167,89.09 533.098906,92.2406352 527.075543,98.542 C521.052179,104.843365 518.040543,112.812618 518.040543,122.45 C518.040543,128.751365 519.523195,134.542974 522.488543,139.825 C525.453891,145.107026 529.392185,149.230652 534.303543,152.196 C539.214901,155.161348 544.543181,156.644 550.288543,156.644 Z M734.061628,57.676 C745.552352,57.676 755.143256,61.1046324 762.834628,67.962 C770.526,74.8193676 774.464294,83.5299472 774.649628,94.094 L774.649628,185 L735.729628,185 L735.729628,108.55 C735.173625,96.6886074 729.243018,90.758 717.937628,90.758 C709.041584,90.758 701.906322,94.9279583 696.531628,103.268 C691.156935,111.608042 688.469628,122.357268 688.469628,135.516 L688.469628,185 L649.549628,185 L649.549628,63.514 L684.855628,63.514 L687.635628,82.974 C692.08365,75.0046268 698.245922,68.7960222 706.122628,64.348 C713.999334,59.8999778 723.312241,57.676 734.061628,57.676 Z M855.840714,10.138 L855.840714,62.958 L885.308714,62.958 L885.308714,93.26 L855.840714,93.26 L855.840714,185 L816.920714,185 L816.920714,93.26 L798.016714,93.26 L798.016714,62.958 L816.920714,62.958 L816.920714,10.138 L855.840714,10.138 Z" id="path-1"></path>
    </defs>
    <g id="Logo" stroke="none" stroke-width="1" fill="none" fill-rule="evenodd">
        <g id="Artboard">
            <g id="Group">
                <mask id="mask-2" fill="white">
                    <use xlink:href="#path-1"></use>
                </mask>
                <use id="variant" fill="#33333D" xlink:href="#path-1"></use>
                <g id="Variant_pattern_RGB" mask="url(#mask-2)">
                    <g transform="translate(-1572.000000, -1802.000000)">
                        <polygon id="Fill-1" fill="#03DAC6" points="0 2987 4170 2987 4170 0 0 0"></polygon>
                        <g id="Group-961" stroke-width="1" fill="none">
                            <path d="M1809.58028,1194.714 L1821.7864,1193.81394 L1846.94865,1190.35953 L1878.17541,1188.05937 L1859.74851,1237.20654 L1722.55617,1299.66296 L1720.50827,1400.9575 L1973.3911,1339.08237 L1971.75779,1386.83152 C1971.75779,1386.83152 1890.04196,1425.90299 1881.85037,1514.98209 C1877.79208,1559.12891 1879.80456,1596.85028 1870.08591,1615.97245 C1851.4486,1652.64374 1821.76974,1661.30893 1804.54908,1688.99627 C1761.38285,1758.40318 1793.52627,1844.02579 1793.52627,1844.02579 L1695.93769,1746.08149 L1512.28331,1444.04383 C1512.28331,1444.04383 1614.17185,1425.37795 1656.84642,1277.79269 C1726.27904,1185.75088 1809.58028,1194.714 1809.58028,1194.714" id="Fill-72" fill="#EDE8D7"></path>
                            <polygon id="Fill-148" fill="#EDE8D7" points="2739.42933 1888.84703 2739.42933 1949.37416 2592.37874 2166.2434 2591.62875 2166.41633 2591.62875 2167.34972 2590.01627 2169.72489 2517.02118 2213.96546 2425.6742 2269.51724 2541.96468 2012.63689"></polygon>
                            <path d="M1673.35521,1547.18496 C1673.35521,1547.18496 1665.63029,1524.81882 1669.21775,1503.6986 C1672.9573,1481.68457 1688.59672,1460.88521 1718.51725,1461.20398 C1747.2357,1461.50817 1765.71468,1479.62193 1768.63132,1501.37552 C1771.67087,1524.02918 1762.36055,1545.50984 1755.93978,1559.75458 C1748.22736,1576.85994 1781.51036,1544.16183 1804.5872,1564.12155 C1827.66197,1584.08127 1824.54533,1625.87167 1784.00408,1656.4363 C1743.46491,1686.99676 1779.01455,1696.97037 1762.17514,1740.6359 C1745.33572,1784.30144 1718.51725,1842.93259 1718.51725,1842.93259 L1632.44729,1909.67265 L1569.9146,1769.33165 L1552.61478,1590.31712 L1621.6349,1517.34122 L1673.35521,1547.18496 Z" id="Fill-182" fill="#FFC4BC"></path>
                            <path d="M1913.54963,1795.90433 L1917.47459,1828.29199 L2020.38396,1872.87217 L2100.21648,1872.87217 L2175.68237,1957.07594 L2370.27414,1730.66021 L2425.78399,1782.43047 L2495.78744,1630.44074 C2495.78744,1630.44074 2497.84367,1608.99133 2478.69386,1587.72319 C2465.37108,1572.9305 2427.23189,1564.99453 2427.23189,1564.99453 C2427.23189,1564.99453 2459.35239,1536.04877 2477.84595,1502.97147 C2494.58953,1473.01939 2504.93734,1440.8359 2503.39569,1420.0407 C2498.12908,1348.93159 2395.22388,1281.43732 2395.22388,1281.43732 L2367.15542,1305.89319 C2367.15542,1305.89319 2255.51489,1466.81687 2259.88151,1573.47637 C2259.88151,1573.47637 2204.77374,1536.78423 2134.0953,1576.33698 C2063.41894,1615.89181 2109.61221,1599.92404 2095.0832,1627.75097 C2063.65643,1687.95099 2113.62884,1762.61243 2077.07088,1801.36304 C2058.60023,1820.94357 2024.29225,1825.10219 1998.42585,1818.85592 C1968.20324,1811.55958 1947.56178,1791.76862 1947.56178,1791.76862 L1954.27213,1733.15413 L1913.54963,1795.90433 Z" id="Fill-184" fill="#33333D"></path>
                            <path d="M2495.78744,1630.44074 C2495.78744,1630.44074 2494.84161,1657.11968 2480.76676,1715.56332 C2473.7585,1744.66951 2479.40219,1772.28393 2500.17073,1790.04767 C2521.71217,1808.47395 2553.3681,1815.08482 2553.3681,1815.08482 C2553.3681,1815.08482 2531.46207,1849.51013 2553.3681,1873.92016 C2564.07424,1885.85224 2571.25125,1896.43631 2575.11788,1904.08059 C2579.16367,1912.07698 2591.96354,1916.66897 2591.96354,1922.42979 C2591.96354,1933.69515 2579.32825,1943.20206 2599.98221,1939.44555 L2621.35699,1989.94906 L2572.68249,2023.18887 L2493.54579,2013.72155 L2484.52297,1994.72231 C2484.52297,1994.72231 2527.70586,1977.19609 2495.16244,1906.46618 C2495.16244,1906.46618 2503.24986,1891.09427 2470.81269,1837.86557 C2467.15856,1831.86724 2450.22957,1832.85273 2445.47545,1825.86266 C2443.25672,1822.59993 2441.94215,1816.28074 2439.97967,1813.37221 C2400.403,1754.68479 2423.1861,1761.25608 2423.1861,1761.25608 C2423.1861,1761.25608 2418.80697,1734.34171 2495.78744,1630.44074" id="Fill-405" fill="#FFC4BC"></path>
                            <path d="M2164.88477,2008.35388 C2157.0786,2016.63571 2113.16864,2004.44319 2079.69189,1981.59786 C2043.4131,1956.83988 2018.19669,1919.99982 2032.30696,1894.7064 C2045.68391,1870.72765 2094.71466,1883.22644 2122.42062,1918.21012 C2151.56824,1955.01476 2175.5805,1997.00518 2164.88477,2008.35388 M2295.41469,2021.15269 C2261.11713,1986.85239 2231.94242,2016.03358 2178.19297,1947.43506 C2157.35568,1920.83738 2136.72881,1891.85204 2120.34981,1877.81356 C2094.48549,1855.64327 2065.46704,1857.39964 2020.02167,1854.26401 C1945.79743,1849.1449 1913.54984,1795.9037 1913.54984,1795.9037 L1913.54984,1862.45624 C2021.04666,1871.66938 1979.5825,1910.06372 2024.62787,1972.51806 C2069.67325,2034.9724 2144.40998,2038.04553 2193.03865,2044.18762 C2241.66524,2050.32972 2276.9878,2049.81926 2261.62962,2067.73718 C2246.27353,2085.65509 2196.61987,2137.86913 2196.61987,2137.86913 L2227.2883,2173.26534 L2297.97508,2104.08137 C2297.97508,2104.08137 2335.01845,2060.75752 2295.41469,2021.15269" id="Fill-407" fill="#FF0166"></path>
                            <path d="M1540.58594,1814.58437 C1543.56299,1809.22567 1562.90238,1808.46311 1570.09814,1822.80369 C1574.68351,1831.94808 1570.73772,1854.7705 1566.13151,1862.01684 C1556.00453,1877.93878 1515.23203,1902.30505 1490.62812,1898.69647 C1437.26616,1890.86884 1457.49929,1832.54812 1391.33121,1823.29956 C1325.16314,1814.04892 1329.43185,1751.43207 1370.69809,1740.04794 C1411.96434,1728.66382 1393.09786,1683.15649 1352.54411,1667.50123 C1311.98827,1651.84806 1290.38641,1629.30483 1301.05922,1587.32483 C1309.0633,1555.83931 1321.89442,1540.86743 1342.40463,1553.40997 C1349.24206,1557.58943 1374.9668,1589.37706 1379.948,1594.18156 C1399.87071,1613.39331 1405.08316,1589.92918 1373.06473,1561.6793 C1341.04839,1533.4315 1351.98161,1505.57956 1371.90433,1486.04487 C1391.82496,1466.5081 1423.71838,1503.53776 1445.77441,1498.55616 C1467.83043,1493.57665 1439.56405,1443.30024 1512.28415,1444.04404 L1572.72311,1507.3526 C1572.72311,1507.3526 1525.09235,1518.75756 1526.51525,1565.71916 C1527.93815,1612.68076 1512.99664,1627.62346 1481.69071,1644.70173 C1462.68257,1655.06912 1455.99722,1675.45804 1466.03878,1690.23823 C1472.53455,1699.8014 1491.52602,1703.63291 1500.18844,1712.29601 C1522.24446,1734.35588 1457.49929,1754.86981 1459.63468,1802.2481 C1461.76799,1849.62431 1501.45509,1885.02677 1540.58594,1814.58437" id="Fill-500" fill="#FF0166"></path>
                            <path d="M1851.44902,1845.53548 C1851.44902,1845.53548 1813.34732,1870.17053 1731.13774,1883.87148 C1648.92817,1897.5766 1600.72658,1950.77196 1554.78746,2074.90351 C1554.78746,2074.90351 1610.37648,2086.10637 1629.72003,2040.96782 C1649.06358,1995.82926 1646.74069,2010.02816 1646.39486,2025.86052 C1645.69903,2057.65647 1662.05303,2106.73072 1700.25473,2112.64988 C1700.25473,2112.64988 1712.20877,2105.39729 1738.00017,2112.64988 C1763.79158,2119.90455 1764.22074,2057.80232 1765.83322,2077.95372 C1767.44362,2098.10512 1818.40352,2027.30645 1833.71795,1984.58473 C1849.03029,1941.86301 1867.56968,1901.15185 1851.44902,1845.53548" id="Fill-518" fill="#FF0166"></path>
                            <path d="M1268.50205,1859.94065 C1268.50205,1859.94065 1283.77898,1857.81134 1295.91219,1861.53659 C1325.59938,1870.65181 1325.29105,1900.41638 1325.29105,1964.21248 C1325.29105,2014.98059 1325.7098,2040.5782 1325.7098,2040.5782 L1394.75909,2048.33291 L1394.75909,2152.9256 C1394.75909,2201.02269 1450.57936,2235.15839 1512.28498,2184.37987 C1540.57427,2161.09908 1553.14498,2112.95407 1566.13026,2068.81142 C1579.11763,2024.66668 1630.64419,1908.08775 1737.80559,1893.89926 C1844.967,1879.70661 1851.44818,1845.53548 1851.44818,1845.53548 C1851.44818,1845.53548 1820.33392,1821.65882 1820.33392,1785.81467 C1820.33392,1785.81467 1761.46993,1808.89752 1761.46993,1742.76376 C1761.46993,1742.76376 1692.67064,1885.05281 1572.43645,1897.07448 C1572.43645,1897.07448 1577.59473,1852.33596 1606.98609,1828.28637 C1636.37538,1804.23886 1634.50456,1782.33109 1625.12341,1740.63444 C1621.12553,1722.86654 1629.02962,1707.95717 1636.07538,1701.1692 C1645.5982,1691.99148 1650.8294,1680.299 1650.37524,1669.18989 C1649.62524,1650.80112 1634.57331,1638.11065 1621.10887,1620.11565 C1604.75487,1598.2558 1609.30274,1573.8416 1628.14838,1557.09044 L1562.31988,1496.45497 C1562.31988,1496.45497 1530.0848,1507.41407 1523.00779,1553.04641 C1515.55161,1601.12683 1515.38703,1617.8905 1483.17278,1636.53971 C1465.03963,1647.03627 1451.89393,1665.13753 1452.20434,1674.62777 C1452.71892,1690.44137 1466.81461,1703.26726 1492.28102,1712.03662 C1533.02643,1726.0626 1458.00845,1736.93419 1455.54389,1798.87599 C1453.07933,1860.82196 1494.54349,1868.65584 1512.32039,1865.01184 C1528.99314,1861.59493 1537.6243,1854.75071 1544.17007,1840.5143 C1548.62211,1830.82404 1551.87624,1821.85259 1556.96369,1824.03607 C1562.34905,1826.34665 1561.51156,1839.02461 1556.39494,1851.26505 C1550.23667,1865.99941 1536.89306,1880.58167 1507.70169,1882.04219 C1454.26474,1884.71529 1450.69394,1823.29852 1391.32996,1823.29852 L1391.32996,1869.01836 C1391.32996,1869.01836 1332.01599,1826.54041 1268.50205,1859.94065" id="Fill-609" fill="#423D89"></path>
                            <path d="M2339.6082,1747.40637 L2402.27423,1762.30324 C2402.27423,1762.30324 2410.40748,1810.93162 2357.49968,1859.73293 C2357.49968,1859.73293 2360.95798,1887.13275 2351.12267,1896.97302 C2339.22904,1908.87593 2302.11067,1917.44111 2276.94009,1890.72883 C2251.7716,1864.01656 2243.55293,1864.53118 2255.88197,1845.01107 C2262.75273,1834.12698 2274.25678,1823.56375 2287.72123,1815.54236 C2298.40654,1809.17733 2316.78343,1804.427 2325.22501,1795.90349 C2347.31229,1773.60403 2339.6082,1747.40637 2339.6082,1747.40637" id="Fill-653" fill="#FF0166"></path>
                            <path d="M828.83883,2259.13235 L1394.75805,2048.33229 L1394.75805,2152.92497 C1394.75805,2176.71204 1431.92226,2197.58641 1472.50726,2181.25819 C1507.4569,2167.19888 1544.66277,2121.99782 1566.1313,2068.81079 C1566.1313,2068.81079 1589.6394,2071.55057 1615.40788,2029.83933 C1639.13473,1991.4325 1659.6241,1998.68508 1659.6241,1998.68508 C1659.6241,1998.68508 1651.20544,2022.00129 1654.35332,2046.89885 C1657.26787,2069.94212 1670.92607,2094.33965 1690.26129,2102.92566 C1693.655,2104.43202 1704.15698,2104.08199 1699.91952,2088.6455 C1696.84039,2077.43222 1692.65293,2064.99594 1689.57379,2047.00719 C1688.00923,2037.86697 1692.20293,2028.98927 1694.93624,2022.56591 C1699.82577,2011.07761 1709.24234,2013.40694 1710.459,2026.13283 C1713.34438,2056.35576 1720.53598,2107.15512 1736.19415,2105.88837 C1758.44601,2104.09241 1739.1087,2030.3227 1745.42739,2005.43347 C1745.42739,2005.43347 1761.10223,1990.50535 1776.03124,1981.41097 C1782.65618,1977.37527 1789.54361,1983.64862 1783.26034,1994.53688 C1772.37711,2013.39236 1759.10017,2041.62765 1767.79799,2055.17859 C1781.5166,2076.553 1872.83859,1951.60265 1851.44922,1845.53486 C1851.44922,1845.53486 1865.48866,1859.72543 1913.55067,1862.45478 L1913.55067,2089.02678 L1862.06162,2122.61453 C1862.06162,2122.61453 1791.30192,2111.06581 1721.80888,2120.7394 C1652.33042,2130.41299 1631.30772,2137.28013 1618.88077,2143.49307 C1561.26469,2172.29715 1562.31884,2216.47522 1562.31884,2216.47522 C1562.31884,2216.47522 1359.53966,2282.88192 1288.10289,2310.70885 L1288.10289,2197.00303 L1006.41618,2299.77893 C1006.41618,2299.77893 967.812412,2276.48773 922.458708,2292.38883 C883.804936,2305.94186 874.790445,2346.28424 874.790445,2346.28424 L828.83883,2342.15687 L828.83883,2259.13235 Z" id="Fill-730" fill="#33333D"></path>
                            <path d="M2179.82191,1912.12324 C2183.65104,1897.91183 2191.17388,1884.9651 2198.57589,1872.36631 C2211.13409,1850.98982 2224.64854,1829.68626 2232.51513,1806.04503 C2241.3942,1779.36609 2242.85877,1747.74723 2258.98361,1724.20809 C2284.77084,1686.55548 2333.09535,1683.32817 2354.19513,1686.62423 C2372.91369,1689.54735 2411.00289,1700.78563 2428.03188,1741.14469 C2435.39847,1758.60423 2435.82763,1783.7289 2446.30878,1803.04482 C2459.91072,1828.11531 2476.80847,1830.81342 2488.60834,1847.34582 C2497.88533,1860.34672 2501.26447,1884.4859 2495.16244,1906.46659 C2495.16244,1906.46659 2450.36915,1832.79689 2357.49927,1859.73209 C2357.49927,1859.73209 2393.67181,1836.77633 2385.2219,1769.19455 L2339.60778,1747.40554 C2339.60778,1747.40554 2350.99933,1790.10851 2308.0581,1806.20337 C2265.11271,1822.29824 2322.10588,1871.12664 2276.93967,1890.728 C2231.77555,1910.33144 2216.68612,1933.97684 2212.01742,1981.41138 C2201.49878,1973.91711 2190.31556,1962.85176 2180.56149,1950.41548 C2173.85531,1941.8628 2178.00943,1918.85495 2179.82191,1912.12324" id="Fill-827" fill="#423D89"></path>
                            <path d="M1625.12278,1740.63507 C1641.11012,1780.96495 1676.40351,1769.66625 1676.40351,1795.90349 L1676.40351,1850.46145 C1676.40351,1850.46145 1637.37266,1893.85197 1572.43582,1897.07511 C1572.43582,1897.07511 1564.25674,1841.62125 1598.90222,1818.85509 C1633.5477,1796.091 1625.12278,1740.63507 1625.12278,1740.63507" id="Fill-855" fill="#33333D"></path>
                            <path d="M1995.2138,2121.0938 C1991.23467,2129.56731 1993.05965,2178.29153 1969.4099,2178.25611 C1941.99351,2178.21444 1920.38331,2153.82941 1862.06099,2122.61266 C1830.43006,2105.68231 1817.86353,2101.95289 1814.80106,2093.74607 C1810.32194,2081.73065 1814.90314,2075.38646 1827.25718,2067.27339 C1847.63822,2053.88705 1848.09447,2041.31534 1831.35297,2019.86176 C1809.0532,1991.28478 1782.8618,1960.58265 1784.85136,1924.38846 C1785.21386,1917.79009 1786.62426,1911.06045 1790.31797,1905.58299 C1801.04078,1889.67147 1826.04678,1891.24241 1841.92995,1902.00357 C1862.89223,1916.20873 1871.25673,1952.94045 1897.35646,1956.17192 C1908.9126,1957.60119 1921.05831,1952.56125 1928.20823,1943.37103 C1932.47069,1937.89148 1936.07482,1930.41597 1942.9685,1929.62841 C1949.12052,1928.92419 1954.41838,1934.39541 1956.53503,1940.21665 C1958.65167,1946.0358 1958.66625,1952.41333 1960.36624,1958.36791 C1966.15993,1978.65473 1989.27428,1988.495 2010.18656,1991.25978 C2031.10093,1994.02039 2053.32154,1992.72655 2072.05885,2002.41472 C2076.40672,2004.66279 2080.69001,2007.74009 2082.48374,2012.29249 C2083.55248,2015.00518 2083.63581,2018.0033 2083.44831,2020.91184 C2080.54418,2066.16498 2013.97402,2081.13061 1995.2138,2121.0938" id="Fill-942" fill="#03DAC6"></path>
                            <path d="M2040.63667,1915.65536 C2022.70768,1925.98941 2012.5807,1948.32221 2016.61608,1968.62154 C2018.39523,1977.57424 2022.6056,1985.92899 2024.10975,1994.93378 C2025.61182,2003.93649 2023.54101,2014.57056 2015.73901,2019.30839 C2012.17863,2021.47313 2007.93075,2022.1065 2003.94538,2023.32951 C1982.40393,2029.94038 1969.93947,2057.11102 1978.97896,2077.75204 C1984.09766,2089.44035 1994.99547,2099.78274 1993.46423,2112.45028 C1992.02466,2124.34694 1978.48522,2128.19929 1969.04782,2135.58314 C1963.74787,2139.72718 1953.8063,2147.34854 1955.70212,2162.22041 C1956.63753,2169.54592 1966.09576,2177.69648 1969.41031,2178.25486 C1994.15381,2182.42598 2046.06161,2202.63572 2012.90778,2245.35535 C2002.27664,2259.05214 2003.61413,2273.38022 2005.83911,2290.57725 C2079.07794,2271.22382 2102.46104,2265.69218 2102.46104,2265.69218 C2102.46104,2265.69218 2085.09663,2249.58481 2086.93203,2233.18992 C2089.26325,2212.35514 2108.20056,2198.04373 2125.00456,2185.50953 C2141.80855,2172.97532 2159.65837,2156.24291 2158.2188,2135.32479 C2156.41049,2109.00838 2124.2254,2088.93615 2130.34825,2063.27812 C2133.43155,2050.35222 2146.01268,2040.44736 2146.23351,2027.16519 C2146.42934,2015.21019 2136.43986,2005.63453 2126.28788,1999.32159 C2116.1359,1993.01282 2104.5756,1987.88538 2097.81108,1978.02636 C2084.52164,1958.64584 2104.84643,1932.85447 2095.19861,1918.69723 C2085.20705,1904.03163 2053.04904,1908.49861 2040.63667,1915.65536" id="Fill-944" fill="#423D89"></path>
                        </g>
                    </g>
                </g>
            </g>
        </g>
    </g>
</svg>
